resources/svg/firebase-o.svg

<svg width="15" height="15" viewBox="0 0 15 15" fill="none" xmlns="http://www.w3.org/2000/svg">
<path d="M2.5 11.5L11.5 3.5L12.5 12.5L7.5 14.5L2.5 11.5ZM2.5 11.5L7.5 2.5L9.5 5.5M2.5 11.5L3.5 0.5L6.5 3.5" stroke="black" stroke-linejoin="round"/>
</svg>

<svg viewBox="0 0 15 15" fill="none" xmlns="http://www.w3.org/2000/svg" fill="currentColor"><path d="M2.5 11.5l9-8 1 9-5 2-5-3zm0 0l5-9 2 3m-7 6l1-11 3 3" stroke="currentColor" stroke-linejoin="round"/></svg>
